X: 1
T: Marche des raquetteurs
T: Snowshoers' march
O: Qubec
M: 6/8
L: 1/8
K: A
EA \
| "A"c2c cBc | A3  A2B | "F#m"c2c cdc | "Bm"B3 GFE \
|"E7"d2d dcB | G3- G2e |1 "E7"ede f2e | "A"cec A :|2 "E7"efe dBc | "A"A3 z |]
|: cd \
| "A"e2z "D"f2z | "A"e3 zAB |      c2z "D"d2z | "A"c3 zcc \
|    cAc    ezc |"Bm"B3 zBB |1 "E7"BGB    dAB | "A"c3 z :|2 "E7"BGB    dFG | "A"A3 z |]
